Newaita-dark/actions/16/document-save-as.svg

<?xml version="1.0" encoding="UTF-8"?>
<svg xmlns="http://www.w3.org/2000/svg" xmlns:xlink="http://www.w3.org/1999/xlink" width="16pt" height="16pt" viewBox="0 0 16 16" version="1.1">
<g id="surface1">
<path style=" stroke:none;fill-rule:nonzero;fill:rgb(14.901961%,65.098041%,60.392159%);fill-opacity:1;" d="M 3.996094 9.597656 C 3.992188 9.46875 4.039062 9.347656 4.125 9.253906 C 4.214844 9.164062 4.335938 9.109375 4.464844 9.109375 L 8.433594 9.109375 C 8.601562 9.109375 8.757812 9.199219 8.839844 9.347656 C 8.925781 9.496094 8.921875 9.675781 8.835938 9.820312 L 6.851562 13.128906 C 6.765625 13.269531 6.613281 13.355469 6.449219 13.355469 C 6.285156 13.355469 6.132812 13.269531 6.046875 13.128906 L 4.0625 9.820312 C 4.023438 9.753906 4 9.675781 3.996094 9.597656 Z M 5.292969 10.046875 L 6.449219 11.976562 L 7.605469 10.046875 Z M 5.292969 10.046875 "/>
<path style=" stroke:none;fill-rule:nonzero;fill:rgb(74.117649%,74.117649%,74.117649%);fill-opacity:1;" d="M 7.9375 0.785156 L 3.308594 0.785156 C 2.574219 0.785156 1.984375 1.375 1.984375 2.109375 L 1.984375 14.015625 C 1.984375 14.75 2.574219 15.339844 3.308594 15.339844 L 12.570312 15.339844 C 13.300781 15.339844 13.890625 14.75 13.890625 14.015625 L 13.890625 6.078125 C 13.890625 5.945312 13.839844 5.820312 13.746094 5.726562 L 8.949219 0.933594 C 8.859375 0.839844 8.730469 0.785156 8.601562 0.785156 Z M 3.636719 1.777344 L 7.929688 1.777344 L 7.929688 5.355469 C 7.929688 6.085938 8.523438 6.675781 9.253906 6.675781 L 12.898438 6.675781 L 12.898438 6.738281 C 12.898438 6.742188 12.898438 6.746094 12.898438 6.746094 L 12.898438 13.6875 C 12.898438 14.050781 12.605469 14.347656 12.238281 14.347656 L 3.636719 14.347656 C 3.273438 14.347656 2.976562 14.050781 2.976562 13.6875 L 2.976562 2.441406 C 2.976562 2.074219 3.273438 1.777344 3.636719 1.777344 Z M 8.925781 2.308594 L 12.300781 5.683594 L 9.585938 5.683594 C 9.21875 5.683594 8.925781 5.390625 8.925781 5.023438 Z M 8.925781 2.308594 "/>
<path style=" stroke:none;fill-rule:nonzero;fill:rgb(74.117649%,74.117649%,74.117649%);fill-opacity:1;" d="M 4.628906 7.457031 L 8.269531 7.457031 C 8.542969 7.457031 8.765625 7.679688 8.765625 7.953125 C 8.765625 8.230469 8.542969 8.449219 8.269531 8.449219 L 4.628906 8.449219 C 4.355469 8.449219 4.132812 8.230469 4.132812 7.953125 C 4.132812 7.679688 4.355469 7.457031 4.628906 7.457031 Z M 4.628906 7.457031 "/>
</g>
</svg>

<svg xmlns="http://www.w3.org/2000/svg" width="16pt" height="16pt" viewBox="0 0 16 16"><path d="M3.996 9.598a.484.484 0 0 1 .129-.344c.09-.09.21-.145.34-.145h3.969c.168 0 .324.09.406.239a.465.465 0 0 1-.004.472L6.852 13.13a.472.472 0 0 1-.805 0L4.063 9.82a.493.493 0 0 1-.067-.222zm1.297.449l1.156 1.93 1.156-1.93zm0 0" fill="#26a69a"/><path d="M7.938.785h-4.63A1.32 1.32 0 0 0 1.985 2.11v11.907c0 .734.59 1.324 1.325 1.324h9.261c.73 0 1.32-.59 1.32-1.324V6.078a.493.493 0 0 0-.144-.351L8.95.934a.488.488 0 0 0-.347-.149zm-4.301.992H7.93v3.578c0 .73.593 1.32 1.324 1.32h3.644v7.012a.66.66 0 0 1-.66.66H3.637a.662.662 0 0 1-.66-.66V2.441c0-.367.296-.664.66-.664zm5.289.532L12.3 5.684H9.586a.657.657 0 0 1-.66-.66zm0 0" fill="#bdbdbd"/><path d="M4.629 7.457h3.64a.497.497 0 0 1 0 .992H4.63a.497.497 0 0 1 0-.992zm0 0" fill="#bdbdbd"/></svg>
